X:1
T:# / 6 handel: baccus ever fair and young (alexander's feast)
%%score [ 1 2 3 ] { ( 4 5 ) | ( 6 7 ) }
L:1/8
Q:1/4=120
M:3/4
K:C
V:1 treble nm="Midi_72"
V:2 treble nm="Midi_75"
V:3 treble nm="Midi_71"
V:4 treble nm="Midi_1"
V:5 treble 
V:6 bass 
V:7 bass 
V:1
 z6 | z6 | z6 | z6 | z6 | z6 | z6 | z6 | z6 | z6 | z6 | z6 |[M:3/4] z6 | z6 | z6 | z6 | z6 | z6 | %18
w: ||||||||||||||||||
 z6 | z6 | z6 |[M:3/4] z6 | z6 | z6 | z6 | z6 | z6 | z6 | z6 | z6 | z6 | z6 |[M:3/4] z6 | z6 | z6 | %35
w: |||||||||||||||||
 z6 | z6 | z6 | z6 | z6 | z6 |[M:3/4] z6 | z6 | z6 | z6 | z6 | z6 | z6 ||[M:3/4] z6 | z6 | z6 | %51
w: ||||||||||||||||
 z6 | z6 | z6 | z6 | z6 |[M:3/4] z6 | z6 | z6 | z6 | z6 | z6 | z6 | z6 | %64
w: |||||||||||||
[M:3/4][Q:1/4=120][Q:1/4=120][Q:1/4=120][Q:1/4=120] z6 | z6 | z6 | z6 | z6 | z6 | z6 | z6 | %72
w: ||||||||
[M:3/4] z6 | z6 | z6 | z6 | z6 | z6 | z6 | z6 |[M:3/4] z6 | z6 | z6 | z6 | z6 | z6 | z6 | z6 | %88
w: ||||||||||||||||
[M:3/4] z6 | z6 | z6 | z6 | z6 | z6 | z6 | z6 |[M:3/4] z6 | z6 | z6 | z6 | z6 | z6 | z6 | %103
w: |||||||||||||||
[M:3/4] z6 | z6 | z6 | z6 | z6 | z6 | z6 |[M:3/4] z6 | z6 | z6 | z6 | z6 | z6 | z6 |[M:3/4] z6 | %118
w: |||||||||||||||
 z6 | z6 | z6 | z6 | z6 | z6 |[M:3/4] z6 | z6 | z6 | z6 | z6 | z6 | z6 | z6 || %132
w: ||||||||||||||
[K:F][M:3/4][K:treble]"^ALT." z6 | z6 | z6 | z6 | z2!f! F2 A2 | G4 A2 | E4 F2 | C4 C2 | z2 C2 F2 | %141
w: ||||Bac- chus'|bles- sings|are a|trea- sure|Drin- king|
 F4 F2 | B4 F2 | (F3 _E) D2 | z2 D2 B,2 | D4 F2 | B4 B2 | (F3 _E) D2 | z2 F2 A2 | G4 G2 | %150
w: is the|sol- dier's|plea * sure,|Drin- king|is the|sol- dier's|plea- * sure,|Rich the|trea- sure,|
 z2 E2 C2 | E4 G2 | c4 c2 | (G3 F) E2 | z2 c2 F2 | B2 A2 z2 | z2 c2 F2 | B2 A2 z2 | z2!p! F2 D2 | %159
w: Drin- king|is the|sol- dier's|plea- * sure,|Rich the|trea- sure,|Sweet the|plea- sure,|Sweet is|
 E2 F4 | F4 F2 | G4 _A2 | (G2 F2) E2 | F2 _A2 A2 | (=B,2 C4-) | C2 F2 F2 | (F2 _A2 G2) | %167
w: plea- sure|af- ter|pain, *|af * ter|pain af- ter|pain, *|* Sweet is|plea- * *|
 (F_E) D3 C | C6 | z6 | z6 | z6 | z2!f! F2 A2 | (c3 B) A2 | G2 (F>E FG) | (E3 D) C2 | z2 F2 C2 | %177
w: sure * af- ter|pain.||||Bac- chus'|bles- * sings|are a * * *|trea * sure|Drin- king|
 (F3 G) F2 | (A3 B) c2 | (A3 G) F2 | z2 F2 C2 | (F3 G) F2 | (A3 B) c2 | (A3 G) F2 | z6 | z6 | z6 | %187
w: is * the|sol * dier's|plea- * sure,|Drin- king|is * the|sol * dier's|plea * sure;||||
 z6 | z2 c2 c2 | (c3 B) A2 | z2 B2 B2 | (B3 A) G2 | z2 A2 F2 | (A3 B) A2 | F2 F4 | A6 | z2 B2 B2 | %197
w: |Rich the|trea- * sure,|Sweet the|plea * sure,|Sweet is|plea * sure|af- ter|pain,|sweet is|
 (B2 A2) G2 | (AB G3) F | F2 A2 F2 | G2 E2 F2- | (FG) E4 | F6 |[M:3/4] z6 | z6 | z6 | z6 | z6 | %208
w: plea- * sure|af- * * ter|pain, Sweet is|plea- sure af|* * ter|pain.||||||
 z6 | z6 | z6 | z6 | z6 | z6 | z6 | z6 |[M:3/4] z6 | z6 | z6 | z6 | z6 | z6 | z6 | z6 | z6 | z6 | %226
w: ||||||||||||||||||
 z6 | z6 | z6 | z6 |] %230
w: ||||
V:2
 z6 | z6 | z6 | z6 | z6 | z6 | z6 | z6 | z6 | z6 | z6 | z6 |[M:3/4] z6 | z6 | z6 | z6 | z6 | z6 | %18
w: ||||||||||||||||||
 z6 | z6 | z6 |[M:3/4] z6 | z6 | z6 | z6 | z6 | z6 | z6 | z6 | z6 | z6 | z6 |[M:3/4] z6 | z6 | z6 | %35
w: |||||||||||||||||
 z6 | z6 | z6 | z6 | z6 | z6 |[M:3/4] z6 | z6 | z6 | z6 | z6 | z6 | z6 ||[M:3/4] z6 | z6 | z6 | %51
w: ||||||||||||||||
 z6 | z6 | z6 | z6 | z6 |[M:3/4] z6 | z6 | z6 | z6 | z6 | z6 | z6 | z6 |[M:3/4] z6 | z6 | z6 | z6 | %68
w: |||||||||||||||||
 z6 | z6 | z6 | z6 |[M:3/4] z6 | z6 | z6 | z6 | z6 | z6 | z6 | z6 |[M:3/4] z6 | z6 | z6 | z6 | z6 | %85
w: |||||||||||||||||
 z6 | z6 | z6 |[M:3/4] z6 | z6 | z6 | z6 | z6 | z6 | z6 | z6 |[M:3/4] z6 | z6 | z6 | z6 | z6 | z6 | %102
w: |||||||||||||||||
 z6 |[M:3/4] z6 | z6 | z6 | z6 | z6 | z6 | z6 |[M:3/4] z6 | z6 | z6 | z6 | z6 | z6 | z6 | %117
w: |||||||||||||||
[M:3/4] z6 | z6 | z6 | z6 | z6 | z6 | z6 |[M:3/4] z6 | z6 | z6 | z6 | z6 | z6 | z6 | z6 || %132
w: |||||||||||||||
[K:F][M:3/4][K:treble]"^TENOR." z2!f! A2 F2 | c4 f2 | c4 d2 | A4 A2 | c4 f2 | (e3 d) c2 | %138
w: Bac- chus'|bles- sings|are a|trea- sure,|are a|trea- * sure,|
 z2 c2 F2 | f4 c2 | z2 f2 c2 | d4 B2 | (d3 _e) f2 | (d3 c) B2 | z2 B2 F2 | (B3 c) B2 | (d3 _e) f2 | %147
w: are a|trea- sure,|Drin- king|is the|sol- * dier's|plea- * sure,|Drin- king|is * the|sol- * dier's|
 (d3 c) B2 | z2 d2 f2 | (!courtesy!=e3 d) c2 | z2 c2 G2 | (c3 d) e2 | (e3 f) g2 | (e3 d) c2 | %154
w: plea * sure,|Rich the|trea- * sure,|Drin- king|is * the|sol- * dier's|plea- * sure,|
 z2 A2 c2 | d2 c2 z2 | z2 A2 c2 | d2 c2 z2 | z2!p! F2 B2 | (B2 A2) G2 | (_A2 G2) (F2 | E2 _d2) c2 | %162
w: Rich the|trea- sure,|Sweet the|plea- sure,|Sweet is|plea- * sure|af- * ter|pain, * *|
 (B2 _A2) G2 | F2 c2 f2 | (f2 e2 d2) | (_e2 d2) c2 | (=B4 c2) | (dc) =B3 c | c6 | z6 | z6 | z6 | %172
w: af- * ter|pain, af- ter|pain, * *|Sweet * is|plea- *|sure * af- ter|pain.||||
 z2!f! c2 f2 | (a3 g) f2 | (d3 c) =B2 | c4 c2 | z2 f2 c2 | f4 c2 | f4 c2 | f4 c2 | z2 f2 c2 | %181
w: Bac- chus'|bles * sings|are * a|trea- sure,|Drin- king|is the|sol- dier's|plea- sure,|Drin- king|
 f4- c2 | f4 c2 | f4 c2 | z2 f2 c2 | (a3 g) f2 | z2 g2 g2 | (g3 f) e2 | z2 f2 f2 | f4 c2 | %190
w: is the|sol- dier's|plea- sure;|Rich the|trea- * sure,|Sweet the|plea- * sure,|Rich the|trea- sure,|
 z2 e2 e2 | e4 e2 | z2 c2 A2 | c4 f2 | c2 d4 | c6 | z2 f2 d2 | (e2 f2) f2 | f4 e2 | f2 c2 d2 | %200
w: Sweet the|plea- sue,|Sweet is|plea- sure|af- ter|pain,|Sweet is|plea- * sure|af- ter|pain~, Sweet is|
 (B2 G2) A2- | (AB) G4 | A6 |[M:3/4] z6 | z6 | z6 | z6 | z6 | z6 | z6 | z6 | z6 | z6 | z6 | z6 | %215
w: plea- sure af-|* * ter|pain.|||||||||||||
 z6 |[M:3/4] z6 | z6 | z6 | z6 | z6 | z6 | z6 | z6 | z6 | z6 | z6 | z6 | z6 | z6 |] %230
w: |||||||||||||||
V:3
 z6 | z6 | z6 | z6 | z6 | z6 | z6 | z6 | z6 | z6 | z6 | z6 |[M:3/4] z6 | z6 | z6 | z6 | z6 | z6 | %18
w: ||||||||||||||||||
 z6 | z6 | z6 |[M:3/4] z6 | z6 | z6 | z6 | z6 | z6 | z6 | z6 | z6 | z6 | z6 |[M:3/4] z6 | z6 | z6 | %35
w: |||||||||||||||||
 z6 | z6 | z6 | z6 | z6 | z6 |[M:3/4] z6 | z6 | z6 | z6 | z6 | z6 | z6 || %48
w: |||||||||||||
[K:F][M:3/4][K:bass]"^BASS." z2 F,2 C,2 | F,4 G,2 | A,4 (G,/A,/B,) | A,6 | z2 A,2 F,2 | C4 F2 | %54
w: Bacchus *|e~- ver|fair and * *|young,|Drin- king|joys did|
 C2 D4 | A,6 | z2 C2 A,2 | G,4 F,2 | E,2 TF,4 | G,4 C,2 | z2 C2 G,2 | C4 G,2 | C4 G,2 | %63
w: first or-|dain;|Bac- chus'|bles- sings|are a|trea- sure,|Drin- king|is the|sol- diers|
 (E,3 D,) C,2 | z2 A,2 F,2 | B,4 B,2 | (D3 _E) F2 | (D3 C) B,2 | z2 B,2 F,2 | B,4 B,2 | %70
w: plea . sure,|Drin- king|is the|soI- * dier's|plea- * sure,|drin- king|is the|
 (D3 _E) F2 | (D3 C) B,2 | z2 F,2 C2 | D2 C2 z2 | z2 F,2 C2 | D2 C2 z2 | z2 F,2 B,2 | %77
w: sol- * dier's|plea- * sure,|Rich the|trea- sure|Sweet the|plea- sure,|Sweet is|
 (B,2 A,2) G,2 | (_A,2 G,2) F,2 | (E,2 _D2 C2) | (_A,3 G,) F,2 | F,6 | z6 | z6 | z6 | z6 | %86
w: plea * sure,|af * ter|pain, * *|Af- * ter|pain.|||||
 z2 C2 C2 | (C3 B,) A,2 | (G,2 (F,3) G,) | E,3 D, C,2 | z2 F,2 C,2 | (F,3 G,) F,2 | (A,3 B,) C2 | %93
w: Bac \-chus'|bles * sings|are a *|trea- * sure,|Drin- king|is * the|sol- * dier's|
 (A,3 G,) F,2 | z2 F,2 C,2 | (F,3 G,) F,2 | (A,3 B,) C2 | (A,3 G,) F,2 | z2 F,2 C2 | D2 C2 z2 | %100
w: plea- * sure,|Drin- king|is * the|sol- * dier's|~plea- * sure;|Rich the|trea- sure,|
 z2 F,2 C2 | D2 C2 z2 | z2 F,2 B,2 | (B,2 A,2) G,2 | (_A,2 G,2) F,2 | (E,2 _D2 C2) | %106
w: Sweet the|plea- sure,|Sweet is|plea- * sure,|af- * fer|pain, * *|
 (_A,3 G,) F,2 | F,6 | z2 !courtesy!=A,3 A, | B,6 | z2 F,2 F,2 | C6 | z2 C2 C2 | (C2 B,2) A,2 | %114
w: af- * ter|pain,|af- ter|pain,|af- ter|pain.|Rich the|trea- * sure,|
 z2 B,2 B,2 | (B,2 A,2) G,2 | z2 A,2 A,2 | (A,2 G,2) F,2 | z2 G,2 G,2 | (G,2 F,2) E,2 | z2 C2 D2 | %121
w: Sweet the|plea- * sure,|Rich the|trea- * sure,|Sweet the|plea- * sure,|Sweet is|
 B,2 G,2 A,2- | (A,B,) TG,3 F, | F,4 z2 | z2 A,2 B,2 | C4 F2 | B,2 G,4 | F,6 | z6 | z6 | z6 | z6 || %132
w: plea- sure, af-|* * * ter|pain,|Sweet is|plea- sure|af- ter|pain.|||||
"^BASS." z6 | z6 | z6 | z6 | z2!f! A,2 F,2 | C4 F,2 | C,4 D,2 | A,,4 A,,2 | z2 A,2 F,2 | B,4 B,2 | %142
w: ||||Bac- chus'|bles- sings|are a|trea- sure,|Drin- king|is the|
 (B,3 C) D2 | B,4 B,,2 | z2 B,,2 B,,2 | B,4 B,2 | (B,3 C) D2 | B,4 B,,2 | z2 B,2 F,2 | C4 C2 | %150
w: sol- * dier's|plea- sure,|Drin- king|is the|sol- * dier's|plea- sure,|Rich the|trea- sure,|
 z2 C,2 C,2 | C4 C2 | (C3 D) E2 | C4 C,2 | z2 F,2 A,2 | B,2 F,2 z2 | z2 F,2 A,2 | B,2 F,2 z2 | %158
w: Drin- king|is the|sol- * dier's|plea- sure,|Rich the|trea- sure,|Sweet the|plea- sure,|
 z2!p! D,2 G,2 | (C,2 F,2) B,,2 | C,2 _D,4 | (C,2 B,,4) | C,4 C,2 | F,2 F,2 F,2 | (G,4 G,2 | %165
w: Sweet is|plea- * sure|af- ter|pain, *|af- ter|pain, af- ter|pain, *|
 G,2) _A,2 A,2 | (D,4 _E,2) | F,2 G,2 G,2 | C,6 | z6 | z6 | z6 | z2!f! F,2 F,2 | (F,3 G,) A,2 | %174
w: * Sweet is|plea- *|sure af- ter|pain.||||Bac- chus'|bles * sings|
 (B,,2 C,2) D,2 | C,4 C,2 | z2 F,2 C,2 | (F,3 G,) F,2 | (A,3 B,) C2 | (A,3 G,) F,2 | z2 F,2 C,2 | %181
w: are * a|trea- sure,|Drin- king|is * the|sol * dier's|plea- * sure,|Drin- king|
 (F,3 G,) F,2 | (A,3 B,) C2 | (A,3 G,) F,2 | z2 C2 C2 | (C3 B,) A,2 | z2 B,2 B,2 | (B,3 A,) G,2 | %188
w: is * the|sol * dier's|plea- * sure;|Rich the|trea- * sure,|Sweet the|plea- * sure,|
 z2 A,2 A,2 | (A,3 G,) F,2 | z2 G,2 G,2 | G,4 C,2 | z2 F,2 F,2 | (F,3 G,) F,2 | A,2 B,4 | F,6 | %196
w: rich the|trea * sure,|Sweet the|plea\- sure,|Sweet is|plea- * sure|af- ter|pain,|
 z2 D,2 G,2 | (C,2 F,2) B,,2 | C,4 C,2 | F,2 F,2 D,2 | G,2 C,2 (F,2 | B,,2) C,4 | F,6 |[M:3/4] z6 | %204
w: Sweet is|plea- * sure|af- ter|pain, Sweet is|plea- sure af-|* ter|pain.||
 z6 | z6 | z6 | z6 | z6 | z6 | z6 | z6 | z6 | z6 | z6 | z6 |[M:3/4] z6 | z6 | z6 | z6 | z6 | z6 | %222
w: ||||||||||||||||||
 z6 | z6 | z6 | z6 | z6 | z6 | z6 | z6 |] %230
w: ||||||||
V:4
[K:F]"^Andante.(               )"!f!"^SOLO & CHORUS..""^_ Bacchus ever fair and young""^(from: Alexander's Feast)" z2 [FA]2 F2 | %1
 [Ac]4 [df]2 | [Ac]4 [Bd]2 | [FA]3 [EG] [FA]2 | c4 f2 | e3 d c2 | z2 [ce]2 [Af]2 | c2 AG F2 | %8
 z2 [fa]2 [cf]2 | d2 c4 | B2 A3"^G. F. Handel""^(1685-1759)" B | [EG]6 |"^Corni." F2 FCA,C | %13
 F2 FGFG | A2 AGFG | A2 ABAB |!p! c2 cccc | c2 B2 A2 | B2 BBBB | B2 A2 G2 | A2 AAAA | A2 B2 A2 | %22
 G2 GGGG | [CG]6 |!f!"^Oboe" [ca]2 [cg]2 [df]2 | e2 dc f2 | de e3 f | f6 |"^Corni." AB c2 c2 | c6 | %30
 GA B2 B2 | B6 | FG A2 A2 | AB c2 BA | G2 GGGG | G6 |!p! F2 C4 | F3 G F2 | A3 B c2 | A3 G F2 | %40
 F2 C4 | F3 GFG | AGABcB | A3 G F2 |"^Tutti."!f! [ca]2 [Gcg]2 [Bdf]2 | e2 dc f2 | AG G3 F | %47
 [A,CF]2 [FA]>[GB]!p! [Ac]2 || c2 F2 C2 | [A,CF]4 [CEG]2 | [CFA]4 (G/[FA]/[GB]) | %51
 [CFA]2 [FA][FA][FA][FA] | [FA]2 [CFA]2 [A,CF]2 | [Ac]4 [df]2 | [Ac]2 [Bd]4 | %55
 [CFA]2 [Ac][Ac][Ac][Ac] | [Ac]2 [Fc]2 [FA]2 | [DG]4 [A,F]2 | E2 F4 | [CEG]2 [CEG][CEG][CEG][CEG] | %60
 [CEG]2 [EGc]2 [CEG]2 | [EGc]4 [EGc]2 | [ce]3 [df] [eg]2 | [ce]3 [Gd] [Ec]2 | F2 [CF]2 [CFA]2 | %65
 [DFB]4 [DFB]2 | [Bd]3 [c_e] [df]2 | d3 c B2 | z2 [DFB]2 [DF]2 | [DFB]4 [DFB]2 | %70
 ([Bd]3 [c_e]) [df]2 | [Bd]3 c B2 | F2 F2 c2 | B/c/d f2 c2 | d2 c2 c2 | B/c/d f2 c2 | %76
 [Bd]2 F2 [GB]2 | [GB]2 [FA]2 G2 | [F_A]2 G2 F2 | E2 _d2 c2 | [F_A]3 [EG] F2 | %81
 F2 [cf]2 [!courtesy!=df]2 | f2 e2 d2 | _e2 d2 c2 | =B2 _a2 g2 | T[c_e]3 [=Bd] c2 | %86
 c2!p! [Gc]2 [!courtesy!=Ec]2 | [!courtesy!=Ac]3 [GB] [FA]2 | G2 F3 G | [CE]2 [CG][CG][CG][CG] | %90
 [FA]2 [A,CF]2 [A,C]2 | F3 G F2 | A3 B c2 | [FA]2 [FA][FA][FA][FA] | [FA]2 [A,CF]2 [A,C]2 | %95
 [A,CF]4 [A,CF]2 | [FA]3 [GB] [Ac]2 | [CFA]2 [FA][FA][FA][FA] | [FA]2 [CF]2 [FAc]2 | B/c/d f2 c2 | %100
 [FBd]2 [FAc]2 [Fc]2 | B/c/d f2 c2 | d2 B2 B2 | B2 A2 G2 | [F_A]2 [EG]2 F2 | E2 _d2 c2 | _A3 G F2 | %107
 [_A,CF]2 [A,CF]2 [A,CF]2 | [!courtesy!=A,CF]2 [A,CF]2 [A,CF]2 | [FBf]2 [FBf]2 [FBf]2 | %110
 [F=Bf]2 [FBf]2 [FBf]2 | [Gce]2 [CEG][CEG][CEG][CEG] | [CEG]2 [FA][FA][FA][FA] | %113
 [FA]2 [CEG]2 [CF]2 | [CG]2 [CEG][CEG][CEG][CEG] | [EG]2 [FA]2 [GB]2 | [Ac]2 [Ac][Ac][Ac][Ac] | %117
 [Ac]2 [GB]2 [FA]2 | [GB]2 [GB][GB][GB][GB] | [GB]2 [FA]2 [CEG]2 | [Fc]2 [Fc]2 [DFd]2 | %121
 [DFB]2 [CEG]2 [CFA]2 | [FA][GB] [EG]4 | [FA]2 AGAB | c2 .c2 [Bd]2 | e4 f2 | [FB]2 G3 F | %127
 [A,CF]2 [FA]>[GB] [Ac]2 |"^Corni." [FA]2 FCA,C | F2 FGFG | A2 AGFG | A2 ABAB ||!f! c6 | c4 f2 | %134
 c4 d2 | [FA]2 [FA][CG][A,F][CG] | [FA]2!f! [cfc']2 [cfa]2 | (T[eg]3 [df]/[eg]/ [cfa]2) | %138
 [ce]4 f2 | [FAc]2 [Fcf][Fcf][Fcf][Fcf] | [Fcf]2 [Fcf]2 [CFA]2 | B3 c B2 | [Bd]3 [c_e] [df]2 | %143
 [FBd]3 [_EAc] [DFB]2 | z2 [DFB]2 [DF]2 | [DFB]3 [_Ec] [DFB]2 | [Bd]3 [c_e] [df]2 | %147
 [FBd]3 [_EAc] [DFB]2 | [DFB]2 [Bd]2 [Af]2 | [G!courtesy!=e]3 [Fd] [Ec]2 | z2 [EGc]2 [EG]2 | %151
 [EGc]3 [FGd] [EGc]2 | [ce]3 [df] [eg]2 | [Gce]3 .[FGd] [EGc]2 | [Fcf]2 [Acf]2 [FAc]2 | %155
 [FBd]2 [Acf]2 [FAc]2 | [GB]/[Ac]/[Bd] [cf]2 [Ac]2 | [GB]/[Ac]/[Bd] [Ac][Ac][Ac][Ac] | %158
 f2!p! F2 [FB]2- | [EB]2 [FA]2 [DFG]2 | [CF_A]2 G2 F2 | [CE]2 [EG_d]2 [F_Ac]2 | %162
 [GB]2 [F_A]2 [EG]2 | [CF_A]2 [Acf]2 [Acf]2 | [=Bf]2 [ce]2- [cd]2 | [c_e]2 [df]2 [cf]2 | %166
 f2 _a2 g2 | [df]_e d3 c | c2!f! [cf]2 [fa]2 | ([ac']3 [gb] [fa]2) | g2 f>efg | e3 d c2 | %172
 [Ac]2 [Acf]2 [cfa]2 | ([ac']3 [gb] [fa]2) | g2 f>efg | e3 d c2 | z2 [Acf]2 [FAc]2 | %177
 ([Acf]3 [Bg]) [Acf]2 | (([fa]3 [gb])) [ac']2 | ([cfa]3 [Bg]) [Acf]2 | z2 [Acf]2 [FAc]2 | %181
 ([Acf]3 [Bg]) [Acf]2 | ([fa]3 [gb]) [ac']2 | ([cfa]3 [Beg]) [Acf]2 | z2 [ca]2 [ca]2 | %185
 [ca]3 [Bg] [Af]2 | z2 [Bg]2 [Bg]2 | [Bg]3 [Af] [Ge]2 | z2 [ac']2 [ac']2 | ([ac']3 [gb]) [fa]2 | %190
 z2 [gb]2 [gb]2 | [gb]3 [fa] [eg]2 | z2 [cfa]2 [Acf]2 | [cfac']4 [Acf]2 | [FAc]2 [Fd]4 | %195
 [FAc]2 [FAc][FAc][FAc][FAc] | [Fcd]2 [FBd]2 [dgb]2 | [egb]2 [cfa]2 [dfg]2 | ab g3 f | %199
 f2 [FAc]2 [FBd]2 | [DGB]2 [EG]2 [CFA]2- | [FA][GB] G3 F | [A,CF]2 [CFA]2 [A,CF]2 | c4 f2 | c2 d4 | %205
 A3 G A2 |"^Corni." F2 FCA,C | F2 FGFG | A2 AGFG | A2 ABAB |!p! c2 cccc | c2 B2 A2 | B2 B4 | %213
 B2 A2 G2 | c2 c4 | c2 B2 A2 | GA B2 A2 | G6 | F2 C4 | F3 G F2 | A3 B c2 | A3 G F2 | F2 C4 | %223
 F3 GFG | AGABcB | A3 G F2 |!f!"^Tutti-" [ca]2 [Gcg]2 [Bdf]2 | e2 dc f2 | AG G3 F | [A,CF]6 |] %230
V:5
[K:F] x4 x2 | x4 x2 | x4 x2 | x4 x2 | c4 A2 | G4 A2 | x4 x2 | F4 F2 | x4 x2 | d2 G2 A2 | E2 F3 G | %11
 x4 x2 | x4 x2 | x4 x2 | F2 FCA,C | F2 FGFG | A2 AAAA | A2 G2 F2 | G2 GGGG | G2 F2 C2 | F2 FFFF | %21
 F2 G2 F2 | C2 CCCC | x4 x2 | x4 x2 | G2 A2 F2 | B2 G2 c2 | A6 | FG A2 A2 | A6 | C2 G2 G2 | G6 | %32
 x4 F2 | FG A2 GF | C2 CCCC | C6 | x4 x2 | x4 x2 | F3 G A2 | F4 C2 | x4 x2 | x4 x2 | FCFGAG | %43
 F3 C A,A, | x4 x2 | G2 A4 | [DF]2 [CF]2 [CE]2 | x4 x2 || A2 A,4 | x4 x2 | x4 E2 | x4 x2 | x4 x2 | %53
 x4 x2 | x4 x2 | x4 x2 | x4 x2 | x4 x2 | B,2 C2 A,2 | x4 x2 | x4 x2 | x4 x2 | x4 x2 | x4 x2 | %64
 x4 x2 | x4 x2 | x4 x2 | [FB]4 [DF]2 | x4 x2 | x4 x2 | F4 B2 | F4 [DF]2 | C2 F2 F2 | F2 [Ac]2 F2 | %74
 F2 A2 F2 | F2 A2 F2 | F2 F2 D2 | (E2 C2 [DF]2) | C2 B,4- | B,2 E2 F2 | _D2 C2 x2 | _A,2 x2 x2 | %82
 =B2 c4- | c2 F4- | F2 =B2 c2 | x4 x2 | x4 x2 | x4 x2 | D6 | x4 x2 | x4 x2 | A,4 A,2 | F3 G A2 | %93
 x4 x2 | x4 x2 | x4 x2 | C6 | x4 x2 | x4 x2 | F2 [Ac]2 [FA]2 | x4 x2 | F2 [Ac]2 F2 | F4 D2 | %103
 E2 F2 [DF]2 | C2 B,4 | C2 [FG]4 | [CF]2"^,""^," [B,E]4- | x6 | x6 | x6 | x4 x2 | x4 x2 | x4 x2 | %113
 x4 x2 | x4 x2 | C4 x2 | x4 x2 | x4 x2 | x4 x2 | x4 x2 | x4 x2 | x4 x2 | D2 C4 | C2 FCFG | %124
 A2 F2 F2 | B4 A2 | D2 [CE]4 | x4 x2 | x4 x2 | x4 x2 | F2 FCA,C | F2 FGFG || A2 A2 F2 | A4 d2 | %134
 A4 B2 | x4 x2 | x4 x2 | x4 x2 | c2 G2 [FA]2 | x4 x2 | x4 x2 | [DF]4 [DF]2 | F4 F2 | x4 x2 | %144
 x4 x2 | x4 x2 | F4 F2 | x4 x2 | x4 x2 | x4 x2 | x4 x2 | x4 x2 | G4 G2 | x4 x2 | x4 x2 | x4 x2 | %156
 x2 A2 F2 | D2 FFFF | [FA]2 x2 x2 | x4 x2 | x2 B,4 | x4 x2 | C4 C2 | x4 x2 | F6 | G2 F2 F2 | %166
 =B4 c2 | _A(c [Gc]2) [F=B]2 | [!courtesy!=EG]2 x2 x2 | x4 x2 | d2 c2 =B2 | c2 G4 | x4 x2 | c4 c2 | %174
 d3 c =B2 | c2 G4 | x4 x2 | x4 x2 | c4 c2 | x4 x2 | x4 x2 | x4 x2 | c4 c2 | x4 x2 | x4 x2 | x4 x2 | %186
 x4 x2 | x4 x2 | x4 x2 | x4 x2 | x4 x2 | x4 x2 | x4 x2 | x4 x2 | x4 x2 | x4 x2 | x4 x2 | x4 x2 | %198
 [cf]2 [cf]2- [ce]2 | [Ac]2 x2 x2 | x4 x2 | D2 [CF]2 [B,E]2 | x4 x2 | A2 F2 c2 | F2 F4 | F3 E F2 | %206
 x4 x2 | x4 x2 | F2 FCA,C | F2 FGFG | A2 AAAA | A2 G2 F2 | G2 G4 | G2 F2 C2 | A2 A4 | A2 G2 F2 | %216
 C2 G2 F2 | C6 | x4 x2 | x4 x2 | F3 G A2 | F4 C2 | x4 x2 | x4 x2 | FCFGAG | F3 CA,A, | x4 x2 | %227
 [GB]2 A2 A2 | [DF]2 [CF]2 [B,E]2 | x4 x2 |] %230
V:6
[K:F] [F,,F,]6- | [F,,F,]6 | [F,,F,]6- | [F,,F,]6 | z2 A,2 F,2 | C4 F2 | C4 D2 | A,4 B,2 | %8
 F,4 A,2 | B,2 E,2 F,2 | G,2 A,2 F,2 | C,6 | z6 | z6 | z6 | z6 | z6 | z6 | z6 | z6 | z6 | z6 | z6 | %23
 z6 |"^Fagotti" F,2 E,2 D,2 | C,2 F,2 D,2 | B,,2 C,2 C,,2 | F,,6 | z6 | z6 | z6 | z6 | A,2 F,2 x2 | %33
 z6 | z6 | z6 | A,2 F,F,F,F, | A,2 A,CA,C | z6 | z6 | A,2 F,F,F,F, | A,F,A,CA,C | z6 | z6 | %44
 F,2 E,2 D,2 | C,2 F,2 D,2 | B,,2 C,2 C,,2 | F,,2 F,2 C,2 || [F,,F,]6- | [F,,F,]6 | [F,,F,]6- | %51
 [F,,F,]6 | [F,,F,]6- | [F,,F,]6 | [F,,F,]6- | [F,,F,]6 | [F,,F,]2 [A,,A,]2 [F,,F,]2 | C,4 D,2 | %58
 G,,2 A,,2 F,,2 | [C,,C,]6 | [C,,C,]6- | [C,,C,]6 | [C,,C,]6- | [C,,C,]6 | A,,4 F,,2 | B,,4 B,,2 | %66
 [B,,B,]6- | [B,,B,]6 | [B,,B,]6 | [B,,B,]6 | [B,,B,]6 | B,,4 B,2 | A,2 F,2 A,2 | B,2 F,2 A,2 | %74
 B,2 F,2 A,2 | B,2 F,2 A,2 | D,4 G,2 | C,2 F,2 B,,2 | C,2 _D,4 | G,,4 _A,,2 | B,,2 C,2 C,,2 | %81
 F,,2 F,2 !courtesy!=D,2 | G,2 C2 F,2 | G,2 _A,4 | D,4 _E,2 | F,2 G,2 G,,2 | %86
 C,2 !courtesy!=E,2 C,2 | F,4 F,,2 | B,,2 D,2 B,,2 | C,3 B,,A,,G,, | F,,6- | [F,,F,]6 | [F,,F,]6- | %93
 [F,,F,]6 | [F,,F,]6- | [F,,F,]6 | [F,,F,]6- | [F,,F,]6 | F,2 A,,2 F,,2 | B,,2 F,,2 A,,2 | %100
 B,,2 F,,2 A,,2 | B,,2 F,2 A,2 | D,4 G,2 | C,2 F,2 B,,2 | C,2 _D,4 | C,2 B,,4 | C,4 C,,2 | %107
 F,,2 F,2 F,2 | _E,2 E,2 E,2 | !courtesy!=D,2 D,2 D,2 | _D,2 D,2 D,2 | C,6 | C,2 C2 C2 | %113
 C2 B,2 A,2 | z2 [G,B,]2 [G,B,]2 | [G,B,]2 [F,A,]2 [E,G,]2 | (z2 [F,A,]2 [F,A,]2) | %117
 [F,A,]2 [G,B,]2 [A,C]2 | z2 [E,G,]2 [E,G,]2 | [E,G,]2 [F,A,]2 B,2 | [A,,A,]4 B,,2 | G,,2 C,2 F,2 | %122
 B,,2 C,2 C,,2 | F,2 C,2 A,,2 | F,,2 A,,2 B,,2 | C,4 D,2 | B,,2 C,2 C,,2 | F,,4 z2 | z6 | z6 | z6 | %131
 z6 || [F,,F,]6- | [F,,F,]6 | [F,,F,]6- | [F,,F,]6 | [F,,F,]2 [A,,A,]2 [F,,F,]2 | C,4 F,2 | %138
 C,4 D,2 | [A,,C,F,]4 [A,,C,F,]2 | z2 [A,,A,]2 [F,,F,]2 | [B,,B,]4 [B,,B,]2 | [B,,B,]4 [B,,B,]2 | %143
 [B,,B,]4 [B,,B,]2 | [B,,B,]4 [B,,B,]2 | [B,,B,]4 [B,,B,]2 | [B,,B,]4 [B,,B,]2 | %147
 [B,,B,]4 [B,,B,]2 | B,,2 B,2 F,2 | [C,C]4 [C,C]2 | [C,C]4 [C,C]2 | [C,C]4 [C,C]2 | [C,C]4 [C,C]2 | %153
 [C,C]4 [C,C]2 | A,2 F,2 A,2 | B,2 F,2 F,,2 | B,,2 [F,,F,]2 [A,,A,]2 | [B,,B,]2 [F,,F,]2 A,2 | %158
 D,2 D,2 G,2 | C,2 F,2 B,,2 | C,2 _D,4 | C,2 B,,4 | C,4 C,2 | F,,2 F,2 F,2 | G,6 | G,2 _A,2 A,2 | %166
 D,4 _E,2 | F,2 G,2 G,,2 | C,2 A,,2 F,,2 | (F,3 G, A,2) | B,2 C2 D2 | C3 !courtesy!_B,A,G, | %172
 F,2 A,,2 F,,2 | (F,3 G, A,2) | B,,2 C,2 D,2 | C,3 !courtesy!_B,,A,,G,, | F,,4 [F,,F,]2 | %177
 [F,,F,]4 [F,,F,]2 | [F,,F,]4 [F,,F,]2 | [F,,F,]4 [F,,F,]2 | [F,,F,]6 | [F,,F,]6 | %182
 [F,,F,]4 [F,,F,]2 | [F,,F,]4 [F,,F,]2 | z2 [A,CF][A,CF][A,CF][A,CF] | z2 C2 C2 | %186
 z2 [E,G,C][E,G,C][E,G,C][E,G,C] | [E,G,C]2 C2 C2 | z2 F,2 A,2 | C2 CCCC | z2 [E,C]2 [E,C]2 | %191
 E,3 F, G,2 | F,,2 F,2 F,2 | F,4 F,2 | A,2 B,4 | F,3 G,F,E, | D,2 D,2 G,2 | C,2 F,2 B,,2 | %198
 C,4 C,,2 | F,,2 F,2 D,2 | G,2 C,2 F,2 | B,,2 C,2 C,,2 | F,,6 | F,,4 F,2 | A,2 B,4 | F,4 F,2 | z6 | %207
 z6 | z6 | z6 | z6 | z6 | z6 | z6 | z6 | z6 | z6 | z6 | A,2 F,4 | A,3 CA,C | z6 | z6 | A,2 F,4 | %223
 A,F,A,CA,C | z6 | z6 | F,2 E,2 D,2 | C,2 F,2 D,2 | B,,2 C,2 C,,2 | F,,6 |] %230
V:7
[K:F] x6 | x6 | x6 | x6 | x6 | x6 | x6 | x6 | x6 | x6 | x6 | x6 | x6 | x6 | x6 | x6 | x6 | x6 | %18
 x6 | x6 | x6 | x6 | x6 | x6 | x6 | x6 | x6 | x6 | x6 | x6 | x6 | x6 | z6 | x4 x2 | x4 x2 | x4 x2 | %36
 z6 | z6 | x4 x2 | x4 x2 | z6 | z6 | x4 x2 | x4 x2 | x4 x2 | x4 x2 | x4 x2 | x4 x2 || x6 | x6 | %50
 x6 | x6 | x6 | x6 | x6 | x6 | x6 | x6 | x6 | x6 | x6 | x6 | x6 | x6 | x6 | x6 | x6 | x6 | x6 | %69
 x6 | x6 | x6 | x6 | x6 | x6 | x6 | x6 | x6 | x6 | x6 | x6 | x6 | x6 | x6 | x6 | x6 | x6 | x6 | %88
 x6 | x6 | x6 | x6 | x6 | x6 | x6 | x6 | x6 | x6 | x6 | x6 | x6 | x6 | x6 | x6 | x6 | x6 | x6 | %107
 x6 | x6 | x6 | x4 x2 | x4 x2 | C,6- | C,6 | C,6- | C,6 | C,6 | C,6 | C,6- | C,4 B,,2 | x4 x2 | %121
 x4 x2 | x4 x2 | x4 x2 | x6 | x6 | x6 | x6 | x6 | x6 | x6 | x6 || x6 | x6 | x6 | x6 | x6 | x6 | %138
 x6 | x6 | x6 | x6 | x6 | x6 | x6 | x6 | x6 | x6 | x6 | x6 | x6 | x6 | x6 | x6 | x6 | x6 | x6 | %157
 x6 | x6 | x6 | x6 | x6 | x6 | x6 | x6 | x6 | x6 | x6 | x6 | x6 | x6 | x6 | x6 | x6 | x6 | x6 | %176
 x6 | x6 | x6 | x6 | x4 x2 | x4 x2 | x4 x2 | x4 x2 | F,6 | C,6 | C,6 | C,6 | C,6 | C,6 | C,6 | %191
 [C,C]6 | x4 x2 | x4 x2 | x4 x2 | x4 x2 | x4 x2 | x4 x2 | x4 x2 | x4 x2 | x4 x2 | x4 x2 | x6 | x6 | %204
 x6 | x6 | x6 | x6 | x6 | x6 | x6 | x6 | x6 | x6 | x6 | x6 | x4 x2 | x4 x2 | z6 | z6 | x4 x2 | %221
 x4 x2 | z6 | z6 | x4 x2 | x4 x2 | x4 x2 | x4 x2 | x4 x2 | x4 x2 |] %230

